X: 5651
T: Buttermilk Mary
R: jig
M: 6/8
K: Amajor
cAE FEC|E>Ac e2 A|d2 f ecA|B/c/dc B2 e/d/|
cea ecA|dfa e2 A|a>ec B^AB|cAG A2:|
eaa agf|e>cA A2 e|fbb b2 a|g/a/bg e2 f/g/|
aba gag|f/g/af e2 A|a>ec B^AB|cAG A2:|

